X: 413
T: The swaggering jig
C:anon.
O:Ireland
B:Francis O'Neill: "The Dance Music of Ireland" (1907) no. 413
R:Hop, slip jig
Z:Transcribed by Frank Nordberg - http://www.musicaviva.com
F:http://www.musicaviva.com/abc/tunes/ireland/oneill-1001/oneill-1001-041
3.abc
m: Mn3/2 = n/o/n/
M:9/8
L:1/8
K:G
d|BGG AGE DGG|BAG GFG Azd|BGG AGE DGG|cBA BGE D2:|c|B/(Md3/2c) dge dBG|
Bdd dBG Azd|Bdd dge dBG|cBA BGE Dzc|.B/(Md3/2c) dge dBG|Bdd dBG Azf|({a}g
)fe dBd cBA|cBA BGE D2|]
W:
W:
W:  From Musica Viva - http://www.musicaviva.com
W:  the Internet center for free sheet music downloads.


